build/img/advant-icon-07.svg

<svg width="51" height="50" viewBox="0 0 51 50" fill="none" xmlns="http://www.w3.org/2000/svg">
<g opacity="0.5">
<path d="M49.7967 33.5421C50.2056 33.5421 50.5369 33.2108 50.5369 32.8018V11.5567C50.5369 9.14403 48.5743 7.18108 46.1619 7.18108H26.8794C25.4266 7.18108 24.05 6.54977 23.1021 5.44871L20.3414 2.24623C19.1116 0.818758 17.3256 0 15.4417 0H4.375C1.96265 0 0 1.96285 0 4.37549V40.4274C0 42.84 1.96265 44.8029 4.375 44.8029H4.93466V47.2709C4.93466 48.7758 6.1587 50 7.66345 50H42.8733C44.378 50 45.6021 48.7758 45.6021 47.2709V44.8029H46.162C48.5744 44.8029 50.537 42.84 50.537 40.4274V36.0422C50.537 35.6333 50.2057 35.3019 49.7968 35.3019C49.3878 35.3019 49.0565 35.6333 49.0565 36.0422V40.4274C49.0565 42.0237 47.758 43.3223 46.162 43.3223H45.6021V24.8132C45.6021 23.3083 44.3781 22.0841 42.8733 22.0841H34.2625V20.777C34.2625 17.7927 31.8345 15.3647 28.8502 15.3647H21.6867C18.7024 15.3647 16.2745 17.7927 16.2745 20.777V22.0841H7.66355C6.15889 22.0841 4.93476 23.3083 4.93476 24.8132V43.3223H4.3751C2.77904 43.3223 1.48067 42.0237 1.48067 40.4274V4.37549C1.48057 2.77924 2.77894 1.48057 4.375 1.48057H15.4417C16.8943 1.48057 18.2714 2.11189 19.2199 3.21285L21.9803 6.41513C23.2094 7.8429 24.995 8.66176 26.8794 8.66176H46.1618C47.7579 8.66176 49.0563 9.96042 49.0563 11.5568V32.8018C49.0564 33.2107 49.3877 33.5421 49.7967 33.5421ZM11.0551 33.0701L9.03812 32.5544C7.49378 32.1596 6.41523 30.7703 6.41523 29.176V24.8134C6.41523 24.125 6.97518 23.5649 7.66345 23.5649H42.8733C43.5616 23.5649 44.1215 24.125 44.1215 24.8134V29.176C44.1215 30.7702 43.043 32.1596 41.4988 32.5544L26.506 36.3878C25.6966 36.5949 24.8407 36.5949 24.0308 36.3878L13.9184 33.8022C13.522 33.7011 13.1191 33.9401 13.0178 34.3361C12.9166 34.7322 13.1556 35.1354 13.5517 35.2367L23.6641 37.8223C24.1888 37.9564 24.7287 38.0235 25.2685 38.0235C25.8082 38.0235 26.348 37.9564 26.8727 37.8223L41.8656 33.9889C42.7412 33.7649 43.5112 33.3161 44.1215 32.7143V43.3704C41.4389 43.7058 39.308 45.8368 38.9726 48.5194H11.5642C11.2288 45.8368 9.09784 43.7058 6.41523 43.3704V32.7143C7.02562 33.3161 7.79562 33.765 8.67133 33.9889L10.6884 34.5046C11.085 34.606 11.4877 34.3668 11.589 33.9707C11.6902 33.5746 11.4513 33.1714 11.0551 33.0701ZM29.6809 22.0267H20.8558V21.2727C20.8558 20.4256 21.5448 19.7366 22.3919 19.7366H28.1448C28.9918 19.7366 29.681 20.4256 29.681 21.2727V22.0267H29.6809ZM7.66345 48.5194C6.97518 48.5194 6.41523 47.9593 6.41523 47.2709V44.8647C8.28066 45.1779 9.75679 46.654 10.0699 48.5194H7.66345ZM44.1214 47.2709C44.1214 47.9594 43.5615 48.5194 42.8732 48.5194H40.4667C40.7799 46.654 42.2559 45.1779 44.1213 44.8647V47.2709H44.1214ZM17.755 20.777C17.755 18.6091 19.5186 16.8453 21.6866 16.8453H28.8501C31.018 16.8453 32.7818 18.6091 32.7818 20.777V22.0267H31.1615V21.2727C31.1615 19.6092 29.8082 18.256 28.1447 18.256H22.3918C20.7283 18.256 19.3751 19.6092 19.3751 21.2727V22.0267H17.7549V20.777H17.755Z" fill="white"/>
<path d="M25.2684 41.7969C25.6774 41.7969 26.0087 41.4656 26.0087 41.0566V40.0248C26.0087 39.6158 25.6774 39.2845 25.2684 39.2845C24.8595 39.2845 24.5281 39.6158 24.5281 40.0248V41.0566C24.5281 41.4655 24.8595 41.7969 25.2684 41.7969Z" fill="white"/>
</g>
</svg>

<svg width="51" height="50" fill="none" xmlns="http://www.w3.org/2000/svg"><g opacity=".5" fill="#fff"><path d="M49.797 33.542a.74.74 0 00.74-.74V11.557a4.38 4.38 0 00-4.375-4.376H26.879a4.98 4.98 0 01-3.777-1.732l-2.76-3.203A6.462 6.462 0 0015.441 0H4.375A4.38 4.38 0 000 4.375v36.052a4.38 4.38 0 004.375 4.376h.56v2.468A2.732 2.732 0 007.663 50h35.21a2.732 2.732 0 002.73-2.73v-2.467h.559a4.38 4.38 0 004.375-4.376v-4.385a.74.74 0 10-1.48 0v4.385a2.898 2.898 0 01-2.895 2.895h-.56V24.813a2.732 2.732 0 00-2.729-2.729h-8.61v-1.307a5.418 5.418 0 00-5.413-5.412h-7.163a5.418 5.418 0 00-5.413 5.412v1.307h-8.61a2.732 2.732 0 00-2.73 2.73v18.508h-.559a2.898 2.898 0 01-2.894-2.895V4.375a2.898 2.898 0 012.894-2.894h11.067c1.452 0 2.83.63 3.778 1.732l2.76 3.202a6.458 6.458 0 004.9 2.247h19.282a2.898 2.898 0 012.894 2.895v21.245c0 .409.332.74.74.74zm-38.742-.472l-2.017-.516a3.485 3.485 0 01-2.623-3.378v-4.363c0-.688.56-1.248 1.248-1.248h35.21c.689 0 1.248.56 1.248 1.248v4.363a3.485 3.485 0 01-2.622 3.378l-14.993 3.834a5.008 5.008 0 01-2.475 0l-10.113-2.586a.74.74 0 00-.366 1.435l10.112 2.585a6.484 6.484 0 003.209 0l14.993-3.833a4.956 4.956 0 002.255-1.275V43.37a5.947 5.947 0 00-5.148 5.15H11.564a5.947 5.947 0 00-5.149-5.15V32.714a4.952 4.952 0 002.256 1.275l2.017.516a.74.74 0 10.367-1.435zm18.626-11.043h-8.825v-.754c0-.847.689-1.536 1.536-1.536h5.753c.847 0 1.536.689 1.536 1.536v.754zM7.663 48.519a1.25 1.25 0 01-1.248-1.248v-2.406a4.468 4.468 0 013.655 3.654H7.663zm36.458-1.248a1.25 1.25 0 01-1.248 1.248h-2.406a4.468 4.468 0 013.654-3.654v2.406zM17.755 20.777a3.936 3.936 0 013.932-3.932h7.163a3.936 3.936 0 013.932 3.932v1.25h-1.62v-.754a3.02 3.02 0 00-3.017-3.017h-5.753a3.02 3.02 0 00-3.017 3.017v.754h-1.62v-1.25z"/><path d="M25.268 41.797a.74.74 0 00.74-.74v-1.032a.74.74 0 10-1.48 0v1.032c0 .408.332.74.74.74z"/></g></svg>
